blockchains/ethereum/assets/0x2dfF88A56767223A5529eA5960Da7A3F5f766406/logo.svg

<svg fill="none" height="250" viewBox="0 0 250 250" width="250" xmlns="http://www.w3.org/2000/svg" xmlns:xlink="http://www.w3.org/1999/xlink"><linearGradient id="a" gradientUnits="userSpaceOnUse" x1="6.48685" x2="153.471" y1="191.657" y2="115.817"><stop offset="0" stop-color="#35e0f4"/><stop offset=".0772" stop-color="#33d7f0"/><stop offset=".2056" stop-color="#2ebde4"/><stop offset=".3693" stop-color="#2594d0"/><stop offset=".5601" stop-color="#195bb6"/><stop offset=".6836" stop-color="#1132a3"/></linearGradient><linearGradient id="b" gradientUnits="userSpaceOnUse" x1="52.0833" x2="173.864" y1="94.2744" y2="94.2744"><stop offset="0" stop-color="#35e0f4"/><stop offset=".0696" stop-color="#33d7f0"/><stop offset=".1854" stop-color="#2ebde4"/><stop offset=".333" stop-color="#2594d0"/><stop offset=".505" stop-color="#195bb6"/><stop offset=".6164" stop-color="#1132a3"/><stop offset="1" stop-color="#1132a3"/></linearGradient><clipPath id="c"><path d="m52.0833 62.5h145.833v114.583h-145.833z"/></clipPath><path d="m125.4 248.951c68.456 0 123.95-55.495 123.95-123.95 0-68.4559-55.494-123.95022-123.95-123.95022-68.4557 0-123.95005 55.49432-123.95005 123.95022 0 68.455 55.49435 123.95 123.95005 123.95z" fill="#fff"/><g clip-path="url(#c)"><path d="m186.008 158.003h-96.9854l19.0244-32.248 29.461.14v-20.047h-17.721l13.185-22.3499h4.536v-20.9844h-10.554c-3.037 0-5.871 1.5426-7.393 4.0374l-23.981 39.2969h-30.671l-12.8257 19.634 31.4203.155-23.9107 39.171c-1.5222 2.487-1.5222 5.58 0 8.068 1.5222 2.487 4.3481 4.029 7.3848 4.029h130.6383z" fill="url(#a)"/><path d="m172.94 115.724-28.899-49.0696c-1.499-2.5538-4.356-4.1407-7.447-4.1407h-10.577v20.9844h3.989l13.832 22.3499h-78.929l-12.8257 19.634 114.4087.553h.04c2.583 0 5.003-1.306 6.315-3.41 1.319-2.111 1.358-4.753.093-6.901z" fill="url(#b)"/></g></svg>

<svg width="250" height="250" viewBox="0 0 250 250" fill="none" xmlns="http://www.w3.org/2000/svg">
<path d="M125.4 248.951C193.856 248.951 249.35 193.456 249.35 125.001C249.35 56.5451 193.856 1.05078 125.4 1.05078C56.9443 1.05078 1.44995 56.5451 1.44995 125.001C1.44995 193.456 56.9443 248.951 125.4 248.951Z" fill="white"/>
<g clip-path="url(#clip0_44_10540)">
<path d="M186.008 158.003H89.0226L108.047 125.755L137.508 125.895V105.848H119.787L132.972 83.4981H137.508V62.5137H126.954C123.917 62.5137 121.083 64.0563 119.561 66.5511L95.58 105.848H64.909L52.0833 125.482L83.5036 125.637L59.5929 164.808C58.0707 167.295 58.0707 170.388 59.5929 172.876C61.1151 175.363 63.941 176.905 66.9777 176.905H197.616L186.008 158.003Z" fill="url(#paint0_linear_44_10540)"/>
<path d="M172.94 115.724L144.041 66.6544C142.542 64.1006 139.685 62.5137 136.594 62.5137H126.017V83.4981H130.006L143.838 105.848H64.909L52.0833 125.482L166.492 126.035C166.508 126.035 166.516 126.035 166.532 126.035C169.115 126.035 171.535 124.729 172.847 122.625C174.166 120.514 174.205 117.872 172.94 115.724Z" fill="url(#paint1_linear_44_10540)"/>
</g>
<defs>
<linearGradient id="paint0_linear_44_10540" x1="6.48685" y1="191.657" x2="153.471" y2="115.817" gradientUnits="userSpaceOnUse">
<stop stop-color="#35E0F4"/>
<stop offset="0.0772" stop-color="#33D7F0"/>
<stop offset="0.2056" stop-color="#2EBDE4"/>
<stop offset="0.3693" stop-color="#2594D0"/>
<stop offset="0.5601" stop-color="#195BB6"/>
<stop offset="0.6836" stop-color="#1132A3"/>
</linearGradient>
<linearGradient id="paint1_linear_44_10540" x1="52.0833" y1="94.2744" x2="173.864" y2="94.2744" gradientUnits="userSpaceOnUse">
<stop stop-color="#35E0F4"/>
<stop offset="0.0696" stop-color="#33D7F0"/>
<stop offset="0.1854" stop-color="#2EBDE4"/>
<stop offset="0.333" stop-color="#2594D0"/>
<stop offset="0.505" stop-color="#195BB6"/>
<stop offset="0.6164" stop-color="#1132A3"/>
<stop offset="1" stop-color="#1132A3"/>
</linearGradient>
<clipPath id="clip0_44_10540">
<rect width="145.833" height="114.583" fill="white" transform="translate(52.0833 62.5)"/>
</clipPath>
</defs>
</svg>
